public/images/icons/menu-price/6.svg

<svg xmlns="http://www.w3.org/2000/svg" width="60" height="50" viewBox="0 0 60 50"><path fill="#FFF" d="M45.863 30.2c-.676-5.523-3.724-9.575-7.49-9.575H21.634c-3.77 0-6.815 4.05-7.497 9.57-2.38 1.366-3.636 3.957-3.636 6.972 0 1.89.512 3.605 1.46 4.978v6.052h7.95v-3.032h20.18v3.032h7.95v-6.052c.948-1.372 1.46-3.088 1.46-4.978-.003-3.01-1.26-5.606-3.64-6.968M17.24 39.765c-1.437 0-2.6-1.16-2.6-2.6 0-1.436 1.163-2.6 2.6-2.6 1.433 0 2.598 1.164 2.598 2.6 0 1.438-1.165 2.6-2.6 2.6m.928-10.593c-.516 0-.992.058-1.46.133.75-3.626 2.698-6.296 4.924-6.296h16.74c2.225 0 4.174 2.67 4.92 6.296-.248-.04-.51-.052-.772-.07 0-.023.006-.04.006-.063 0-2.293-1.86-4.157-4.154-4.157-2.29 0-4.153 1.864-4.153 4.157h-16.05zM37.55 39.48H22.452c-.44 0-.795-.355-.795-.795 0-.437.354-.793.795-.793H37.55c.438 0 .794.356.794.793 0 .44-.356.794-.795.794m0-2.274H22.452c-.44 0-.795-.356-.795-.793 0-.44.354-.794.795-.794H37.55c.438 0 .794.353.794.793 0 .437-.356.793-.795.793m-1.743-8.033c0-1.418 1.148-2.565 2.565-2.565 1.41 0 2.562 1.147 2.562 2.565h-5.127zm6.955 10.593c-1.435 0-2.6-1.16-2.6-2.6 0-1.436 1.164-2.6 2.6-2.6 1.437 0 2.598 1.164 2.598 2.6 0 1.438-1.162 2.6-2.598 2.6m15.59-38.14v46.57h-1.59V3.214H3.24v44.982H1.65V1.626H58.35zM4.297 4.317h51.408v3.18H4.3l-.003-3.18zm0 4.435h51.408v3.18H4.3l-.003-3.18zm0 4.434h51.408v3.18H4.3l-.003-3.18z"/></svg>

<?xml version="1.0" encoding="utf-8"?>
<!-- Generator: Adobe Illustrator 16.0.0, SVG Export Plug-In . SVG Version: 6.00 Build 0)  -->
<!DOCTYPE svg PUBLIC "-//W3C//DTD SVG 1.1//EN" "http://www.w3.org/Graphics/SVG/1.1/DTD/svg11.dtd">
<svg version="1.1" id="Layer_1" xmlns="http://www.w3.org/2000/svg" xmlns:xlink="http://www.w3.org/1999/xlink" x="0px" y="0px"
	 width="60px" height="50px" viewBox="0 0 60 50" enable-background="new 0 0 60 50" xml:space="preserve">
<path fill="#FFFFFF" d="M45.863,30.199c-0.676-5.522-3.724-9.574-7.491-9.574H21.635c-3.769,0-6.815,4.051-7.497,9.57
	c-2.379,1.366-3.636,3.957-3.636,6.972c0,1.89,0.512,3.605,1.459,4.978v6.052h7.95v-3.032h20.182v3.032h7.95v-6.052
	c0.947-1.372,1.46-3.088,1.46-4.978C49.499,34.156,48.243,31.561,45.863,30.199 M17.239,39.766c-1.436,0-2.599-1.161-2.599-2.599
	c0-1.437,1.163-2.6,2.599-2.6c1.434,0,2.599,1.163,2.599,2.6C19.838,38.604,18.673,39.766,17.239,39.766 M18.166,29.173
	c-0.516,0-0.992,0.058-1.459,0.133c0.749-3.626,2.697-6.296,4.923-6.296h16.739c2.226,0,4.175,2.669,4.922,6.296
	c-0.249-0.039-0.511-0.052-0.773-0.071c0-0.022,0.006-0.039,0.006-0.062c0-2.293-1.861-4.157-4.154-4.157
	c-2.291,0-4.153,1.864-4.153,4.157H18.166z M37.549,39.479H22.453c-0.439,0-0.795-0.354-0.795-0.794
	c0-0.437,0.354-0.793,0.795-0.793h15.096c0.439,0,0.795,0.356,0.795,0.793C38.345,39.125,37.988,39.479,37.549,39.479
	 M37.549,37.206H22.453c-0.439,0-0.795-0.356-0.795-0.793c0-0.44,0.354-0.794,0.795-0.794h15.096c0.439,0,0.795,0.354,0.795,0.794
	C38.345,36.85,37.988,37.206,37.549,37.206 M35.807,29.173c0-1.418,1.148-2.565,2.565-2.565c1.411,0,2.562,1.147,2.562,2.565H35.807
	z M42.762,39.766c-1.435,0-2.6-1.161-2.6-2.599c0-1.437,1.164-2.6,2.6-2.6c1.437,0,2.598,1.163,2.598,2.6
	C45.359,38.604,44.198,39.766,42.762,39.766 M58.352,1.627v46.569h-1.591V3.214H3.24v44.982H1.649V1.627H58.352z M4.297,4.315
	h51.408v3.181H4.299L4.297,4.315z M4.297,8.751h51.408v3.178H4.299L4.297,8.751z M4.297,13.184h51.408v3.179H4.299L4.297,13.184z"/>
</svg>
